X:1
T:Title
%%score { ( 1 4 ) | ( 2 3 ) }
L:1/8
Q:1/4=112
M:4/4
K:Ab
V:1 treble nm="Grand Piano"
V:4 treble 
V:2 bass 
V:3 bass 
V:1
 A2 GF E2 F2 | G4 [CA]4 | B3 B B2 B2 | B2 G2 E4 | A2 GF E2 F2 | G4 [CA]4 | %6
w: J.~Lincoln~Hall * * * *||||||
 [EB]3 [G,EG] =D-[DA][B,G]F | E6 z2 | [Gd]3 [Gd] [Gc]2 [GB]2 | [EA]4 [Ac]4 | %10
w: ||||
 [Gd]3 [Gd] [Gc]2 [GB]2 | [Ac]6 z2 | [Ec]3 [Ec] B2 B2 | A4 F4 | E3 A B2 c2 | [CA]6 z2 |] %16
w: ||||||
V:2
 A,2 G,F, E,2 F,2 | [E,B,D]4 [A,,A,]4 | [E,G,E]3 [E,G,E] [F,A,=D]2 [F,A,D]2 | D8 | %4
 A,2 G,F, E,2 F,2 | [E,B,D]4 [A,,A,]4 | [B,,G,]3 B,, z F, z A, | [E,G,]6 z2 | %8
 [E,B,]3 [E,B,] [E,E]2 [E,D]2 | [A,C]4 [A,E]4 | [E,E]3 [E,E] [E,E]2 [E,E]2 | [A,E]6 z2 | %12
 [A,,A,]3 [A,,A,] [E,G,D]2 [E,G,D]2 | [F,A,C]4 [D,A,D]4 | [E,A,C]3 [E,A,C] [E,G,D]2 [E,G,E]2 | %15
 [A,,A,]6 z2 |] %16
V:3
 x8 | x8 | x8 | [G,B,]4 [E,G,]4 | x8 | x8 | z4 B,,2 B,,2 | x8 | x8 | x8 | x8 | x8 | x8 | x8 | x8 | %15
 x8 |] %16
V:4
 x8 | x8 | x8 | x8 | x8 | x8 | z4 .[A,F]2 =D2 | x8 | x8 | x8 | x8 | x8 | x8 | x8 | x8 | x8 |] %16

